svg/sph4u/straight-conductor.svg

<svg xmlns="http://www.w3.org/2000/svg" viewBox="0 0 280 125.269" xml:space="preserve"><circle fill="none" stroke="#000" stroke-miterlimit="10" cx="60.5" cy="62.635" r="12.5"/><circle fill="none" stroke="#000" stroke-miterlimit="10" stroke-dasharray="4.9591,4.9591" cx="60.5" cy="62.635" r="30"/><circle fill="none" stroke="#000" stroke-miterlimit="10" stroke-dasharray="5.0477,5.0477" cx="60.5" cy="62.635" r="45"/><circle fill="none" stroke="#000" stroke-miterlimit="10" stroke-dasharray="4.9595,4.9595" cx="60.5" cy="62.635" r="60"/><circle cx="60.5" cy="62.635" r="2.5"/><path d="m61.127 5.592-6.832-2.796L61.127 0m0 20.592-6.832-2.796L61.127 15m0 20.592-6.832-2.796L61.127 30m-1.254 89.677 6.832 2.796-6.832 2.796m0-20.592 6.832 2.796-6.832 2.796m0-20.592 6.832 2.796-6.832 2.796"/><circle fill="none" stroke="#000" stroke-miterlimit="10" cx="219.5" cy="62.635" r="12.5"/><circle fill="none" stroke="#000" stroke-miterlimit="10" stroke-dasharray="4.9591,4.9591" cx="219.5" cy="62.635" r="30"/><circle fill="none" stroke="#000" stroke-miterlimit="10" stroke-dasharray="5.0477,5.0477" cx="219.5" cy="62.635" r="45"/><circle fill="none" stroke="#000" stroke-miterlimit="10" stroke-dasharray="4.9595,4.9595" cx="219.5" cy="62.635" r="60"/><path d="m218.873 5.592 6.832-2.796L218.873 0m0 20.592 6.832-2.796L218.873 15m0 20.592 6.832-2.796L218.873 30m1.254 89.677-6.832 2.796 6.832 2.796m0-20.592-6.832 2.796 6.832 2.796m0-20.592-6.832 2.796 6.832 2.796"/><path fill="none" stroke="#000" stroke-miterlimit="10" d="m210.867 53.599 17.672 17.672m-17.672 0 17.672-17.672"/></svg>

<svg xmlns="http://www.w3.org/2000/svg" viewBox="0 0 280 125.269" xml:space="preserve"><circle fill="none" stroke="#000" stroke-miterlimit="10" cx="60.5" cy="62.635" r="12.5"/><circle fill="none" stroke="#000" stroke-miterlimit="10" stroke-dasharray="4.9591,4.9591" cx="60.5" cy="62.635" r="30"/><circle fill="none" stroke="#000" stroke-miterlimit="10" stroke-dasharray="5.0477,5.0477" cx="60.5" cy="62.635" r="45"/><circle fill="none" stroke="#000" stroke-miterlimit="10" stroke-dasharray="4.9595,4.9595" cx="60.5" cy="62.635" r="60"/><circle cx="60.5" cy="62.635" r="2.5"/><path d="m61.127 5.592-6.832-2.796L61.127 0M61.127 20.592l-6.832-2.796L61.127 15M61.127 35.592l-6.832-2.796L61.127 30M59.873 119.677l6.832 2.796-6.832 2.796M59.873 104.677l6.832 2.796-6.832 2.796M59.873 89.677l6.832 2.796-6.832 2.796"/><circle fill="none" stroke="#000" stroke-miterlimit="10" cx="219.5" cy="62.635" r="12.5"/><circle fill="none" stroke="#000" stroke-miterlimit="10" stroke-dasharray="4.9591,4.9591" cx="219.5" cy="62.635" r="30"/><circle fill="none" stroke="#000" stroke-miterlimit="10" stroke-dasharray="5.0477,5.0477" cx="219.5" cy="62.635" r="45"/><circle fill="none" stroke="#000" stroke-miterlimit="10" stroke-dasharray="4.9595,4.9595" cx="219.5" cy="62.635" r="60"/><path d="m218.873 5.592 6.832-2.796L218.873 0M218.873 20.592l6.832-2.796L218.873 15M218.873 35.592l6.832-2.796L218.873 30M220.127 119.677l-6.832 2.796 6.832 2.796M220.127 104.677l-6.832 2.796 6.832 2.796M220.127 89.677l-6.832 2.796 6.832 2.796"/><path fill="none" stroke="#000" stroke-miterlimit="10" d="m210.867 53.599 17.672 17.672M210.867 71.271l17.672-17.672"/></svg>
